X:1
T: For A' That and A' That
C:
R:Strathspey
Q: 128
K:D
M:4/4
L:1/16
|:A3|d3e d3A Bd3 e3f|d3e f3d B4 B3A|d3e d3A Bd3 e3g|f3e d3B A4 A2A2|
d3e d3A Bd3 e3f|d3e f3d B4 B3A|d3e d3A Bd3 e3g|f3e d3B A4 A2g2|
f3g a3f ge3 e3g|f3g a3A B4 B3g|f3g a3f g3f e3g|f3e d3B A4 A2g2|
f3g a3f ge3 e3g|f3g a3A B4 B3g|f3g a3f bagf eg3|f3e d3B A4 A2:|
